public/cloud-icons/azure/compute/cloud-simple-node.svg

<?xml version="1.0" encoding="UTF-8" standalone="no"?>
<!-- Generated by Microsoft Visio, SVG Export Cloud Simple Node.svg Page-1 -->

<svg
   xmlns:dc="http://purl.org/dc/elements/1.1/"
   xmlns:cc="http://creativecommons.org/ns#"
   xmlns:rdf="http://www.w3.org/1999/02/22-rdf-syntax-ns#"
   xmlns:svg="http://www.w3.org/2000/svg"
   xmlns="http://www.w3.org/2000/svg"
   xmlns:sodipodi="http://sodipodi.sourceforge.net/DTD/sodipodi-0.dtd"
   xmlns:inkscape="http://www.inkscape.org/namespaces/inkscape"
   width="58.329144"
   height="58.3274"
   viewBox="0 0 58.329142 58.327401"
   xml:space="preserve"
   class="st11"
   version="1.1"
   id="svg143"
   sodipodi:docname="Cloud Simple Node.svg"
   style="font-size:12px;overflow:visible;color-interpolation-filters:sRGB;fill:none;fill-rule:evenodd;stroke-linecap:square;stroke-miterlimit:3"
   inkscape:version="0.92.5 (2060ec1f9f, 2020-04-08)"><metadata
   id="metadata149"><rdf:RDF><cc:Work
       rdf:about=""><dc:format>image/svg+xml</dc:format><dc:type
         rdf:resource="http://purl.org/dc/dcmitype/StillImage" /></cc:Work></rdf:RDF></metadata><defs
   id="defs147" /><sodipodi:namedview
   pagecolor="#ffffff"
   bordercolor="#666666"
   borderopacity="1"
   objecttolerance="10"
   gridtolerance="10"
   guidetolerance="10"
   inkscape:pageopacity="0"
   inkscape:pageshadow="2"
   inkscape:window-width="640"
   inkscape:window-height="480"
   id="namedview145"
   showgrid="false"
   inkscape:zoom="2.4486917"
   inkscape:cx="29.019451"
   inkscape:cy="15.134715"
   inkscape:window-x="0"
   inkscape:window-y="0"
   inkscape:window-maximized="0"
   inkscape:current-layer="svg143" />
	<style
   type="text/css"
   id="style2">
	<![CDATA[
		.st1 {fill:#81ba33}
		.st2 {stroke:#81ba33;stroke-linecap:butt;stroke-width:2.88424}
		.st3 {stroke:#81ba33;stroke-linecap:round;stroke-linejoin:round;stroke-width:2.88424}
		.st4 {fill:#ffffff;stroke:#81ba33;stroke-linecap:butt;stroke-width:1.92283}
		.st5 {fill:#eaeaea;stroke:#486385;stroke-linecap:butt;stroke-width:1.92283}
		.st6 {fill:none;stroke:#486385;stroke-linecap:butt;stroke-width:0.961415}
		.st7 {fill:#486385;stroke:none;stroke-linecap:butt;stroke-width:0.961415}
		.st8 {fill:#ffffff;fill-opacity:0.2;stroke:none;stroke-linecap:butt;stroke-width:0.961415}
		.st9 {fill:#f7f7f7;stroke:#81ba33;stroke-linecap:butt;stroke-width:1.34598}
		.st10 {fill:#81ba33;stroke:none;stroke-linecap:butt;stroke-width:0.961415}
		.st11 {fill:none;fill-rule:evenodd;font-size:12px;overflow:visible;stroke-linecap:square;stroke-miterlimit:3}
	]]>
	</style>

	<g
   id="g141"
   transform="translate(-4.9963,-4.9963124)">
		<title
   id="title4">Page-1</title>
		<g
   id="group12423-1"
   transform="translate(5.66929,-34.0157)">
			<title
   id="title6">Cloud Simple Node.12423</title>
			<g
   id="group12424-2">
				<title
   id="title8">g59</title>
				<g
   id="group12425-3"
   transform="translate(11.809)">
					<title
   id="title10">g11</title>
					<g
   id="shape12426-4"
   transform="translate(21.1588,-4.76921)">
						<title
   id="title12">path5</title>
						<path
   d="m 0,96.38 v -5.9 z"
   class="st1"
   id="path14"
   inkscape:connector-curvature="0"
   style="fill:#81ba33" />
						<path
   d="m 0,96.38 v -5.9"
   class="st2"
   id="path16"
   inkscape:connector-curvature="0"
   style="stroke:#81ba33;stroke-width:2.88423991;stroke-linecap:butt" />
					</g>
					<g
   id="shape12427-7"
   transform="translate(0,-2.42882)">
						<title
   id="title19">path7</title>
						<path
   d="M 41.08,96.38 H 26.29 Z m -26.29,0 H 0 Z"
   class="st1"
   id="path21"
   inkscape:connector-curvature="0"
   style="fill:#81ba33" />
						<path
   d="M 41.08,96.38 H 26.29 m -11.5,0 H 0"
   class="st3"
   id="path23"
   inkscape:connector-curvature="0"
   style="stroke:#81ba33;stroke-width:2.88423991;stroke-linecap:round;stroke-linejoin:round" />
					</g>
					<g
   id="shape12428-10"
   transform="translate(16.0095)">
						<title
   id="title26">path9</title>
						<rect
   x="0"
   y="91.816299"
   width="10.2975"
   height="4.5616999"
   class="st4"
   id="rect28"
   style="fill:#ffffff;stroke:#81ba33;stroke-width:1.92282999;stroke-linecap:butt" />
					</g>
				</g>
				<g
   id="shape12429-12"
   transform="translate(9.26474,-11.0747)">
					<title
   id="title32">path13</title>
					<path
   d="M 45.6,84.59 H 1.83 C 0.8,84.59 0,85.23 0,86.05 v 8.87 c 0,0.82 0.8,1.46 1.82,1.46 H 45.6 c 1.03,0 1.83,-0.64 1.83,-1.46 v -8.87 c 0,-0.82 -0.8,-1.46 -1.83,-1.46 z"
   class="st5"
   id="path34"
   inkscape:connector-curvature="0"
   style="fill:#eaeaea;stroke:#486385;stroke-width:1.92282999;stroke-linecap:butt" />
				</g>
				<g
   id="shape12430-14"
   transform="translate(13.4275,-15.4124)">
					<title
   id="title37">path15</title>
					<path
   d="M 1.71,96.38 C 0.8,96.38 0,95.65 0,94.82 c 0,-0.83 0.8,-1.56 1.71,-1.56 0.91,0 1.71,0.73 1.71,1.56 0,0.83 -0.8,1.56 -1.71,1.56 z"
   class="st6"
   id="path39"
   inkscape:connector-curvature="0"
   style="fill:none;stroke:#486385;stroke-width:0.96141499;stroke-linecap:butt" />
				</g>
				<g
   id="group12431-16"
   transform="translate(43.2727,-13.9999)">
					<title
   id="title42">g23</title>
					<g
   id="shape12432-17">
						<title
   id="title44">rect17</title>
						<path
   d="m 0,95.67 a 0.729046,0.70744 -180 0 0 0.729029,0.707423 L 8.02,96.38 A 0.729046,0.70744 -180 0 0 8.749029,95.672577 0.729046,0.70744 -180 0 0 8.02,94.965154 L 0.73,94.96 A 0.729046,0.70744 -180 0 0 9.71e-4,95.667423 Z"
   class="st7"
   id="path46"
   inkscape:connector-curvature="0"
   style="fill:#486385;stroke:none;stroke-width:0.96141499;stroke-linecap:butt" />
					</g>
					<g
   id="shape12433-19"
   transform="translate(0,-2.4017)">
						<title
   id="title49">rect19</title>
						<path
   d="m 0,95.67 a 0.729046,0.70744 -180 0 0 0.729029,0.707423 L 8.02,96.38 A 0.729046,0.70744 -180 0 0 8.749029,95.672577 0.729046,0.70744 -180 0 0 8.02,94.965154 L 0.73,94.96 A 0.729046,0.70744 -180 0 0 9.71e-4,95.667423 Z"
   class="st7"
   id="path51"
   inkscape:connector-curvature="0"
   style="fill:#486385;stroke:none;stroke-width:0.96141499;stroke-linecap:butt" />
					</g>
					<g
   id="shape12434-21"
   transform="translate(0,-4.75978)">
						<title
   id="title54">rect21</title>
						<path
   d="m 0,95.67 a 0.729046,0.70744 -180 0 0 0.729029,0.707423 L 8.02,96.38 A 0.729046,0.70744 -180 0 0 8.749029,95.672577 0.729046,0.70744 -180 0 0 8.02,94.965154 L 0.73,94.96 A 0.729046,0.70744 -180 0 0 9.71e-4,95.667423 Z"
   class="st7"
   id="path56"
   inkscape:connector-curvature="0"
   style="fill:#486385;stroke:none;stroke-width:0.96141499;stroke-linecap:butt" />
					</g>
				</g>
				<g
   id="shape12435-23"
   transform="translate(9.26474,-25.9624)">
					<title
   id="title60">path25</title>
					<path
   d="M 45.6,84.59 H 1.83 C 0.8,84.59 0,85.23 0,86.05 v 8.87 c 0,0.82 0.8,1.46 1.82,1.46 H 45.6 c 1.03,0 1.83,-0.64 1.83,-1.46 v -8.87 c 0,-0.82 -0.8,-1.46 -1.83,-1.46 z"
   class="st5"
   id="path62"
   inkscape:connector-curvature="0"
   style="fill:#eaeaea;stroke:#486385;stroke-width:1.92282999;stroke-linecap:butt" />
				</g>
				<g
   id="shape12436-25"
   transform="translate(13.4275,-30.3001)">
					<title
   id="title65">path27</title>
					<path
   d="M 1.71,96.38 C 0.8,96.38 0,95.65 0,94.82 c 0,-0.83 0.8,-1.56 1.71,-1.56 0.91,0 1.71,0.73 1.71,1.56 0,0.83 -0.8,1.56 -1.71,1.56 z"
   class="st6"
   id="path67"
   inkscape:connector-curvature="0"
   style="fill:none;stroke:#486385;stroke-width:0.96141499;stroke-linecap:butt" />
				</g>
				<g
   id="group12437-27"
   transform="translate(43.2727,-28.8876)">
					<title
   id="title70">g35</title>
					<g
   id="shape12438-28">
						<title
   id="title72">rect29</title>
						<path
   d="m 0,95.67 a 0.729046,0.70744 -180 0 0 0.729029,0.707423 L 8.02,96.38 A 0.729046,0.70744 -180 0 0 8.749029,95.672577 0.729046,0.70744 -180 0 0 8.02,94.965154 L 0.73,94.96 A 0.729046,0.70744 -180 0 0 9.71e-4,95.667423 Z"
   class="st7"
   id="path74"
   inkscape:connector-curvature="0"
   style="fill:#486385;stroke:none;stroke-width:0.96141499;stroke-linecap:butt" />
					</g>
					<g
   id="shape12439-30"
   transform="translate(0,-2.4017)">
						<title
   id="title77">rect31</title>
						<path
   d="m 0,95.67 a 0.729046,0.70744 -180 0 0 0.729029,0.707423 L 8.02,96.38 A 0.729046,0.70744 -180 0 0 8.749029,95.672577 0.729046,0.70744 -180 0 0 8.02,94.965154 L 0.73,94.96 A 0.729046,0.70744 -180 0 0 9.71e-4,95.667423 Z"
   class="st7"
   id="path79"
   inkscape:connector-curvature="0"
   style="fill:#486385;stroke:none;stroke-width:0.96141499;stroke-linecap:butt" />
					</g>
					<g
   id="shape12440-32"
   transform="translate(0,-4.75978)">
						<title
   id="title82">rect33</title>
						<path
   d="m 0,95.67 a 0.729046,0.70744 -180 0 0 0.729029,0.707423 L 8.02,96.38 A 0.729046,0.70744 -180 0 0 8.749029,95.672577 0.729046,0.70744 -180 0 0 8.02,94.965154 L 0.73,94.96 A 0.729046,0.70744 -180 0 0 9.71e-4,95.667423 Z"
   class="st7"
   id="path84"
   inkscape:connector-curvature="0"
   style="fill:#486385;stroke:none;stroke-width:0.96141499;stroke-linecap:butt" />
					</g>
				</g>
				<g
   id="shape12441-34"
   transform="translate(9.26474,-40.8513)">
					<title
   id="title88">path37</title>
					<path
   d="M 45.6,84.59 H 1.83 C 0.8,84.59 0,85.23 0,86.05 v 8.87 c 0,0.82 0.8,1.46 1.82,1.46 H 45.6 c 1.03,0 1.83,-0.64 1.83,-1.46 v -8.87 c 0,-0.82 -0.8,-1.46 -1.83,-1.46 z"
   class="st5"
   id="path90"
   inkscape:connector-curvature="0"
   style="fill:#eaeaea;stroke:#486385;stroke-width:1.92282999;stroke-linecap:butt" />
				</g>
				<g
   id="shape12442-36"
   transform="translate(13.4275,-45.189)">
					<title
   id="title93">path39</title>
					<path
   d="M 1.71,96.38 C 0.8,96.38 0,95.65 0,94.82 c 0,-0.83 0.8,-1.56 1.71,-1.56 0.91,0 1.71,0.73 1.71,1.56 0,0.83 -0.8,1.56 -1.71,1.56 z"
   class="st6"
   id="path95"
   inkscape:connector-curvature="0"
   style="fill:none;stroke:#486385;stroke-width:0.96141499;stroke-linecap:butt" />
				</g>
				<g
   id="group12443-38"
   transform="translate(43.2727,-43.7765)">
					<title
   id="title98">g47</title>
					<g
   id="shape12444-39">
						<title
   id="title100">rect41</title>
						<path
   d="m 0,95.67 a 0.729046,0.70744 -180 0 0 0.729029,0.707423 L 8.02,96.38 A 0.729046,0.70744 -180 0 0 8.749029,95.672577 0.729046,0.70744 -180 0 0 8.02,94.965154 L 0.73,94.96 A 0.729046,0.70744 -180 0 0 9.71e-4,95.667423 Z"
   class="st7"
   id="path102"
   inkscape:connector-curvature="0"
   style="fill:#486385;stroke:none;stroke-width:0.96141499;stroke-linecap:butt" />
					</g>
					<g
   id="shape12445-41"
   transform="translate(0,-2.4017)">
						<title
   id="title105">rect43</title>
						<path
   d="m 0,95.67 a 0.729046,0.70744 -180 0 0 0.729029,0.707423 L 8.02,96.38 A 0.729046,0.70744 -180 0 0 8.749029,95.672577 0.729046,0.70744 -180 0 0 8.02,94.965154 L 0.73,94.96 A 0.729046,0.70744 -180 0 0 9.71e-4,95.667423 Z"
   class="st7"
   id="path107"
   inkscape:connector-curvature="0"
   style="fill:#486385;stroke:none;stroke-width:0.96141499;stroke-linecap:butt" />
					</g>
					<g
   id="shape12446-43"
   transform="translate(0,-4.75978)">
						<title
   id="title110">rect45</title>
						<path
   d="m 0,95.67 a 0.729046,0.70744 -180 0 0 0.729029,0.707423 L 8.02,96.38 A 0.729046,0.70744 -180 0 0 8.749029,95.672577 0.729046,0.70744 -180 0 0 8.02,94.965154 L 0.73,94.96 A 0.729046,0.70744 -180 0 0 9.71e-4,95.667423 Z"
   class="st7"
   id="path112"
   inkscape:connector-curvature="0"
   style="fill:#486385;stroke:none;stroke-width:0.96141499;stroke-linecap:butt" />
					</g>
				</g>
				<g
   id="shape12447-45"
   transform="translate(7.9938,-9.59148)">
					<title
   id="title116">path49</title>
					<path
   d="M 48.6,52.49 H 48.57 2.81 C 1.25,52.49 0,54.1 0,55.91 v 37.08 c 0,1.79 1.25,3.39 2.81,3.39 H 3.9 Z"
   class="st8"
   id="path118"
   inkscape:connector-curvature="0"
   style="fill:#ffffff;fill-opacity:0.2;stroke:none;stroke-width:0.96141499;stroke-linecap:butt" />
				</g>
				<g
   id="group12448-47"
   transform="translate(0,-28.3842)">
					<title
   id="title121">g57</title>
					<g
   id="shape12449-48">
						<title
   id="title123">circle51</title>
						<ellipse
   cx="14.5866"
   cy="82.223602"
   rx="14.5866"
   ry="14.1544"
   class="st9"
   id="ellipse125"
   style="fill:#f7f7f7;stroke:#81ba33;stroke-width:1.34598005;stroke-linecap:butt" />
					</g>
					<g
   id="shape12450-50"
   transform="translate(3.07164,-7.52345)">
						<title
   id="title128">path53</title>
						<path
   d="m 12.06,95.08 a 6.55397,6.35974 0 0 1 -1.62,0.79 9.72403,9.43585 0 0 1 -3.26,0.51 c -0.98,0 -1.9,-0.14 -2.77,-0.43 A 6.50658,6.31375 0 0 1 2.13,94.68 6.23563,6.05083 0 0 1 0.57,92.56 C 0.19,91.72 0,90.74 0,89.62 0,88.53 0.18,87.56 0.55,86.71 0.92,85.86 1.43,85.14 2.07,84.55 a 6.57341,6.3786 0 0 1 2.26,-1.34 8.01081,7.7734 0 0 1 2.79,-0.46 c 0.53,0 1.01,0.03 1.44,0.1 0.43,0.06 0.8,0.14 1.13,0.24 a 5.77269,5.60161 0 0 1 1.41,0.63 c 0.3,0.21 0.52,0.43 0.65,0.66 0.13,0.24 0.19,0.48 0.19,0.73 0,0.24 -0.05,0.47 -0.14,0.68 -0.1,0.21 -0.22,0.41 -0.35,0.58 A 3.49569,3.3921 0 0 1 11.04,86.8 2.10689,2.04445 0 0 1 10.7,87.06 10.0533,9.75537 -180 0 0 10.2,86.61 3.46167,3.35908 -180 0 0 9.47,86.15 5.5552,5.39057 -180 0 0 8.49,85.79 4.56493,4.42965 -180 0 0 7.25,85.64 c -0.57,0 -1.08,0.09 -1.55,0.27 a 3.46653,3.3638 -180 0 0 -1.22,0.8 3.6901,3.58074 -180 0 0 -0.79,1.25 4.88449,4.73974 -180 0 0 -0.29,1.66 c 0,0.63 0.11,1.18 0.31,1.66 0.21,0.48 0.5,0.88 0.86,1.2 a 3.60869,3.50175 -180 0 0 1.29,0.73 c 0.5,0.16 1.04,0.24 1.63,0.24 0.72,0 1.35,-0.09 1.87,-0.26 0.53,-0.18 0.93,-0.36 1.2,-0.55 l 1.46,2.44 z"
   class="st10"
   id="path130"
   inkscape:connector-curvature="0"
   style="fill:#81ba33;stroke:none;stroke-width:0.96141499;stroke-linecap:butt" />
					</g>
					<g
   id="shape12451-52"
   transform="translate(12.6256,-7.52345)">
						<title
   id="title133">path55</title>
						<path
   d="m 1.34,92.34 c 0.08,0.06 0.26,0.16 0.53,0.29 0.27,0.13 0.61,0.27 1.03,0.4 0.41,0.13 0.89,0.25 1.44,0.36 0.54,0.1 1.13,0.16 1.77,0.16 0.52,0 0.93,-0.04 1.24,-0.11 0.31,-0.07 0.55,-0.16 0.72,-0.27 A 0.826232,0.801747 -180 0 0 8.400493,92.783275 C 8.45,92.64 8.48,92.49 8.48,92.34 A 0.939232,0.911397 -180 0 0 8.100905,91.594847 C 7.85,91.4 7.38,91.24 6.69,91.13 L 4.71,90.79 A 11.3728,11.0358 0 0 1 3.15,90.41 4.91487,4.76921 0 0 1 1.76,89.74 3.50663,3.40271 0 0 1 0.76,88.62 C 0.5,88.17 0.37,87.61 0.37,86.94 c 0,-0.58 0.11,-1.12 0.33,-1.63 0.22,-0.51 0.56,-0.95 1.01,-1.33 0.46,-0.38 1.03,-0.68 1.72,-0.9 0.7,-0.22 1.51,-0.33 2.44,-0.33 0.68,0 1.27,0.04 1.77,0.11 a 9.90264,9.60917 0 0 1 1.31,0.25 c 0.36,0.1 0.65,0.2 0.88,0.3 0.23,0.1 0.39,0.18 0.5,0.25 0.22,0.12 0.43,0.3 0.63,0.52 a 1.17738,1.14249 0 0 1 0.3,0.78 c 0,0.21 -0.04,0.42 -0.12,0.61 a 2.96472,2.87686 0 0 1 -0.28,0.54 c -0.11,0.17 -0.23,0.31 -0.36,0.43 A 3.24661,3.15039 0 0 1 10.17,86.81 3.37419,3.27419 -180 0 0 9.59,86.39 4.82617,4.68314 -180 0 0 8.65,85.96 8.59646,8.3417 -180 0 0 7.41,85.64 7.84192,7.60952 -180 0 0 5.91,85.51 c -0.5,0 -0.91,0.04 -1.2,0.12 -0.3,0.08 -0.53,0.18 -0.67,0.3 A 0.854179,0.828864 -180 0 0 3.748389,86.335589 1.53825,1.49266 -180 0 0 3.68,86.75 c 0,0.12 0.01,0.22 0.04,0.32 0.04,0.1 0.11,0.2 0.24,0.3 0.12,0.09 0.3,0.18 0.52,0.26 0.23,0.08 0.54,0.16 0.93,0.24 l 2.06,0.39 a 11.3777,11.0405 0 0 1 1.91,0.52 c 0.56,0.21 1.02,0.46 1.39,0.77 0.38,0.3 0.66,0.66 0.85,1.09 0.19,0.43 0.28,0.94 0.28,1.53 0,1.32 -0.51,2.35 -1.52,3.09 -1.02,0.75 -2.46,1.12 -4.31,1.12 A 11.7629,11.4143 0 0 1 3.74,96.17 13.8054,13.3962 0 0 1 1.89,95.69 10.9913,10.6656 0 0 1 0.59,95.17 C 0.26,95.01 0.06,94.89 0,94.83 Z"
   class="st7"
   id="path135"
   inkscape:connector-curvature="0"
   style="fill:#486385;stroke:none;stroke-width:0.96141499;stroke-linecap:butt" />
					</g>
				</g>
			</g>
		</g>
	</g>
</svg>

<svg xmlns="http://www.w3.org/2000/svg" xml:space="preserve" width="58.329" height="58.327" style="font-size:12px;overflow:visible;color-interpolation-filters:sRGB;fill-rule:evenodd;stroke-linecap:square;stroke-miterlimit:3" viewBox="0 0 58.329 58.327"><g transform="translate(-4.996 -4.996)"><title>Page-1</title><g transform="translate(5.67 -34.016)"><title>Cloud Simple Node.12423</title><title>g59</title><g transform="translate(11.809)"><title>g11</title><g transform="translate(21.159 -4.77)"><title>path5</title><path d="M0 96.38v-5.9z" style="fill:#81ba33"/><path d="M0 96.38v-5.9" style="stroke:#81ba33;stroke-width:2.88423991;stroke-linecap:butt"/></g><g transform="translate(0 -2.429)"><title>path7</title><path d="M41.08 96.38H26.29Zm-26.29 0H0Z" style="fill:#81ba33"/><path d="M41.08 96.38H26.29m-11.5 0H0" style="stroke:#81ba33;stroke-width:2.88423991;stroke-linecap:round;stroke-linejoin:round"/></g><g transform="translate(16.01)"><title>path9</title><path d="M0 91.816h10.297v4.562H0z" style="fill:#fff;stroke:#81ba33;stroke-width:1.92282999;stroke-linecap:butt"/></g></g><g transform="translate(9.265 -11.075)"><title>path13</title><path d="M45.6 84.59H1.83C.8 84.59 0 85.23 0 86.05v8.87c0 .82.8 1.46 1.82 1.46H45.6c1.03 0 1.83-.64 1.83-1.46v-8.87c0-.82-.8-1.46-1.83-1.46z" style="fill:#eaeaea;stroke:#486385;stroke-width:1.92282999;stroke-linecap:butt"/></g><g transform="translate(13.428 -15.412)"><title>path15</title><path d="M1.71 96.38C.8 96.38 0 95.65 0 94.82s.8-1.56 1.71-1.56 1.71.73 1.71 1.56-.8 1.56-1.71 1.56z" style="fill:none;stroke:#486385;stroke-width:.96141499;stroke-linecap:butt"/></g><g transform="translate(43.273 -14)"><title>g23</title><title>rect17</title><path d="M0 95.67a.729.707-180 0 0 .729.707l7.291.003a.729.707-180 0 0 .729-.707.729.707-180 0 0-.729-.708L.73 94.96a.729.707-180 0 0-.729.707Z" style="fill:#486385;stroke:none;stroke-width:.96141499;stroke-linecap:butt"/><g transform="translate(0 -2.402)"><title>rect19</title><path d="M0 95.67a.729.707-180 0 0 .729.707l7.291.003a.729.707-180 0 0 .729-.707.729.707-180 0 0-.729-.708L.73 94.96a.729.707-180 0 0-.729.707Z" style="fill:#486385;stroke:none;stroke-width:.96141499;stroke-linecap:butt"/></g><g transform="translate(0 -4.76)"><title>rect21</title><path d="M0 95.67a.729.707-180 0 0 .729.707l7.291.003a.729.707-180 0 0 .729-.707.729.707-180 0 0-.729-.708L.73 94.96a.729.707-180 0 0-.729.707Z" style="fill:#486385;stroke:none;stroke-width:.96141499;stroke-linecap:butt"/></g></g><g transform="translate(9.265 -25.962)"><title>path25</title><path d="M45.6 84.59H1.83C.8 84.59 0 85.23 0 86.05v8.87c0 .82.8 1.46 1.82 1.46H45.6c1.03 0 1.83-.64 1.83-1.46v-8.87c0-.82-.8-1.46-1.83-1.46z" style="fill:#eaeaea;stroke:#486385;stroke-width:1.92282999;stroke-linecap:butt"/></g><g transform="translate(13.428 -30.3)"><title>path27</title><path d="M1.71 96.38C.8 96.38 0 95.65 0 94.82s.8-1.56 1.71-1.56 1.71.73 1.71 1.56-.8 1.56-1.71 1.56z" style="fill:none;stroke:#486385;stroke-width:.96141499;stroke-linecap:butt"/></g><g transform="translate(43.273 -28.888)"><title>g35</title><title>rect29</title><path d="M0 95.67a.729.707-180 0 0 .729.707l7.291.003a.729.707-180 0 0 .729-.707.729.707-180 0 0-.729-.708L.73 94.96a.729.707-180 0 0-.729.707Z" style="fill:#486385;stroke:none;stroke-width:.96141499;stroke-linecap:butt"/><g transform="translate(0 -2.402)"><title>rect31</title><path d="M0 95.67a.729.707-180 0 0 .729.707l7.291.003a.729.707-180 0 0 .729-.707.729.707-180 0 0-.729-.708L.73 94.96a.729.707-180 0 0-.729.707Z" style="fill:#486385;stroke:none;stroke-width:.96141499;stroke-linecap:butt"/></g><g transform="translate(0 -4.76)"><title>rect33</title><path d="M0 95.67a.729.707-180 0 0 .729.707l7.291.003a.729.707-180 0 0 .729-.707.729.707-180 0 0-.729-.708L.73 94.96a.729.707-180 0 0-.729.707Z" style="fill:#486385;stroke:none;stroke-width:.96141499;stroke-linecap:butt"/></g></g><g transform="translate(9.265 -40.851)"><title>path37</title><path d="M45.6 84.59H1.83C.8 84.59 0 85.23 0 86.05v8.87c0 .82.8 1.46 1.82 1.46H45.6c1.03 0 1.83-.64 1.83-1.46v-8.87c0-.82-.8-1.46-1.83-1.46z" style="fill:#eaeaea;stroke:#486385;stroke-width:1.92282999;stroke-linecap:butt"/></g><g transform="translate(13.428 -45.189)"><title>path39</title><path d="M1.71 96.38C.8 96.38 0 95.65 0 94.82s.8-1.56 1.71-1.56 1.71.73 1.71 1.56-.8 1.56-1.71 1.56z" style="fill:none;stroke:#486385;stroke-width:.96141499;stroke-linecap:butt"/></g><g transform="translate(43.273 -43.776)"><title>g47</title><title>rect41</title><path d="M0 95.67a.729.707-180 0 0 .729.707l7.291.003a.729.707-180 0 0 .729-.707.729.707-180 0 0-.729-.708L.73 94.96a.729.707-180 0 0-.729.707Z" style="fill:#486385;stroke:none;stroke-width:.96141499;stroke-linecap:butt"/><g transform="translate(0 -2.402)"><title>rect43</title><path d="M0 95.67a.729.707-180 0 0 .729.707l7.291.003a.729.707-180 0 0 .729-.707.729.707-180 0 0-.729-.708L.73 94.96a.729.707-180 0 0-.729.707Z" style="fill:#486385;stroke:none;stroke-width:.96141499;stroke-linecap:butt"/></g><g transform="translate(0 -4.76)"><title>rect45</title><path d="M0 95.67a.729.707-180 0 0 .729.707l7.291.003a.729.707-180 0 0 .729-.707.729.707-180 0 0-.729-.708L.73 94.96a.729.707-180 0 0-.729.707Z" style="fill:#486385;stroke:none;stroke-width:.96141499;stroke-linecap:butt"/></g></g><g transform="translate(7.994 -9.591)"><title>path49</title><path d="M48.6 52.49H2.81C1.25 52.49 0 54.1 0 55.91v37.08c0 1.79 1.25 3.39 2.81 3.39H3.9Z" style="fill:#fff;fill-opacity:.2;stroke:none;stroke-width:.96141499;stroke-linecap:butt"/></g><g transform="translate(0 -28.384)"><title>g57</title><title>circle51</title><ellipse cx="14.587" cy="82.224" rx="14.587" ry="14.154" style="fill:#f7f7f7;stroke:#81ba33;stroke-width:1.34598005;stroke-linecap:butt"/><g transform="translate(3.072 -7.523)"><title>path53</title><path d="M12.06 95.08a6.554 6.36 0 0 1-1.62.79 9.724 9.436 0 0 1-3.26.51c-.98 0-1.9-.14-2.77-.43a6.507 6.314 0 0 1-2.28-1.27 6.236 6.05 0 0 1-1.56-2.12Q0 91.3 0 89.62c0-1.09.18-2.06.55-2.91s.88-1.57 1.52-2.16a6.573 6.379 0 0 1 2.26-1.34 8.01 7.773 0 0 1 2.79-.46c.53 0 1.01.03 1.44.1.43.06.8.14 1.13.24a5.773 5.602 0 0 1 1.41.63c.3.21.52.43.65.66.13.24.19.48.19.73 0 .24-.05.47-.14.68-.1.21-.22.41-.35.58a3.496 3.392 0 0 1-.41.43 2.107 2.044 0 0 1-.34.26 10.053 9.755-180 0 0-.5-.45 3.462 3.36-180 0 0-.73-.46 5.555 5.39-180 0 0-.98-.36 4.565 4.43-180 0 0-1.24-.15c-.57 0-1.08.09-1.55.27a3.467 3.364-180 0 0-1.22.8 3.69 3.58-180 0 0-.79 1.25 4.884 4.74-180 0 0-.29 1.66c0 .63.11 1.18.31 1.66.21.48.5.88.86 1.2a3.609 3.502-180 0 0 1.29.73c.5.16 1.04.24 1.63.24.72 0 1.35-.09 1.87-.26.53-.18.93-.36 1.2-.55l1.46 2.44z" style="fill:#81ba33;stroke:none;stroke-width:.96141499;stroke-linecap:butt"/></g><g transform="translate(12.626 -7.523)"><title>path55</title><path d="M1.34 92.34c.08.06.26.16.53.29s.61.27 1.03.4q.615.195 1.44.36c.54.1 1.13.16 1.77.16.52 0 .93-.04 1.24-.11q.465-.105.72-.27a.826.802-180 0 0 .33-.387c.05-.143.08-.293.08-.443a.94.911-180 0 0-.38-.745c-.25-.195-.72-.355-1.41-.465l-1.98-.34a11.373 11.036 0 0 1-1.56-.38 4.915 4.77 0 0 1-1.39-.67 3.507 3.403 0 0 1-1-1.12q-.39-.675-.39-1.68c0-.58.11-1.12.33-1.63a3.6 3.6 0 0 1 1.01-1.33c.46-.38 1.03-.68 1.72-.9.7-.22 1.51-.33 2.44-.33.68 0 1.27.04 1.77.11a9.903 9.61 0 0 1 1.31.25c.36.1.65.2.88.3s.39.18.5.25c.22.12.43.3.63.52a1.177 1.142 0 0 1 .3.78c0 .21-.04.42-.12.61a2.965 2.877 0 0 1-.28.54c-.11.17-.23.31-.36.43a3.247 3.15 0 0 1-.33.27 3.374 3.274-180 0 0-.58-.42 4.826 4.683-180 0 0-.94-.43 8.596 8.342-180 0 0-1.24-.32 7.842 7.61-180 0 0-1.5-.13c-.5 0-.91.04-1.2.12-.3.08-.53.18-.67.3a.854.829-180 0 0-.292.406 1.538 1.493-180 0 0-.068.414c0 .12.01.22.04.32.04.1.11.2.24.3.12.09.3.18.52.26q.345.12.93.24l2.06.39a11.378 11.04 0 0 1 1.91.52c.56.21 1.02.46 1.39.77.38.3.66.66.85 1.09s.28.94.28 1.53c0 1.32-.51 2.35-1.52 3.09-1.02.75-2.46 1.12-4.31 1.12a11.763 11.414 0 0 1-2.33-.21 13.805 13.396 0 0 1-1.85-.48 10.991 10.666 0 0 1-1.3-.52c-.33-.16-.53-.28-.59-.34Z" style="fill:#486385;stroke:none;stroke-width:.96141499;stroke-linecap:butt"/></g></g></g></g></svg>
